markets/AXL.svg

<svg width="42" height="42" viewBox="0 0 42 42" fill="none" xmlns="http://www.w3.org/2000/svg">
<circle cx="21" cy="21" r="21" fill="white"/>
<g clip-path="url(#clip0_9309_2866)">
<path d="M31.7659 10.8388C32.8363 11.883 33.9085 12.9309 34.9659 13.9639C32.6274 16.2859 30.3092 18.5876 28.039 20.8428C30.4163 23.2724 32.7087 25.6149 34.9826 27.9388C33.9011 29.0386 32.8344 30.1253 31.6809 31.2975C31.2187 30.7967 30.7768 30.2923 30.3036 29.8157C27.9724 27.4657 25.6358 25.1233 23.2953 22.7809C22.8239 22.308 22.5373 21.759 22.5133 21.0839C22.4892 20.3755 22.7833 19.8005 23.2713 19.3108C25.9796 16.5938 28.6897 13.8767 31.3998 11.1615C31.5015 11.0595 31.618 10.9686 31.7659 10.8388Z" fill="black"/>
<path d="M27.9219 7C29.0071 8.07384 30.0812 9.13656 31.17 10.2141C31.0961 10.2994 31.0352 10.3773 30.9649 10.4459C28.2399 13.1778 25.5131 15.9098 22.7883 18.6435C22.1375 19.2963 21.3795 19.6747 20.4571 19.4243C20.0652 19.3186 19.6547 19.0998 19.3681 18.816C16.5637 16.0359 13.7833 13.2316 10.9974 10.433C10.9364 10.3718 10.8865 10.2976 10.8218 10.2178C11.8996 9.1514 12.9644 8.0961 14.0588 7.01298C14.2548 7.19845 14.4692 7.39319 14.6726 7.59905C16.6599 9.59466 18.6435 11.594 20.6308 13.5877C20.9746 13.9327 20.9821 13.9234 21.3351 13.571C23.4741 11.4252 25.6111 9.28123 27.7519 7.13724C27.8055 7.08346 27.8703 7.0408 27.9201 7.00185L27.9219 7Z" fill="black"/>
<path d="M10.1675 31.2513C9.11932 30.1533 8.08038 29.0665 7.01369 27.9481C9.2931 25.6947 11.6169 23.3949 13.9314 21.1063C13.4508 20.6037 13.0588 20.1772 12.6484 19.7673C10.8552 17.9757 9.05648 16.1878 7.25957 14.398C6.91756 14.0586 6.91571 14.0531 7.24108 13.7229C8.09146 12.8605 8.94555 12 9.80148 11.1413C9.91795 11.0244 10.0492 10.9224 10.1786 10.8093C10.8959 11.5252 11.5947 12.2207 12.2935 12.918C14.3418 14.9619 16.3901 17.0075 18.4367 19.0532C18.627 19.2424 18.8119 19.4409 18.9764 19.6541C19.6124 20.4813 19.6309 21.4958 19.0134 22.3378C18.836 22.5808 18.6233 22.8015 18.4107 23.0166C15.7135 25.7299 13.0126 28.4397 10.3117 31.1493C10.2895 31.1715 10.2581 31.1863 10.1675 31.2476V31.2513Z" fill="black"/>
<path d="M10.7511 31.7877C13.5519 29.0039 16.3008 26.2645 19.0591 23.5364C19.3344 23.2638 19.634 22.9855 19.9741 22.8093C20.8615 22.3456 21.8062 22.4941 22.5419 23.2025C23.6956 24.3153 24.8269 25.4541 25.9657 26.5835C27.6923 28.2991 29.4153 30.0165 31.1697 31.7636C31.0218 31.9324 30.9053 32.0771 30.7759 32.2087C29.8996 33.0934 29.0123 33.967 28.1453 34.8609C27.9474 35.0649 27.8366 35.0296 27.6609 34.8516C25.5091 32.6724 23.3535 30.4968 21.198 28.3214C21.1369 28.2601 21.0685 28.2045 20.9927 28.1359C20.0721 29.0409 19.1551 29.9293 18.2512 30.8307C16.9016 32.1791 15.5651 33.5385 14.2155 34.885C14.1545 34.9462 13.9641 34.9815 13.9216 34.9387C12.866 33.9039 11.8233 32.856 10.7493 31.7822L10.7511 31.7877Z" fill="black"/>
</g>
<defs>
<clipPath id="clip0_9309_2866">
<rect width="28" height="28" fill="white" transform="translate(7 7)"/>
</clipPath>
</defs>
</svg>

<svg width="42" height="42" fill="none" viewBox="0 0 42 42" xmlns="http://www.w3.org/2000/svg">
  <circle cx="21" cy="21" r="21" fill="#fff"/>
  <g fill="#000" clip-path="url(#a)">
    <path d="m31.766 10.839 3.2 3.125-6.927 6.879 6.944 7.096-3.302 3.358c-.462-.5-.904-1.005-1.377-1.481a2750 2750 0 0 0-7.009-7.035c-.471-.473-.758-1.022-.782-1.697-.024-.709.27-1.283.758-1.773l8.129-8.15c.102-.101.218-.192.366-.322M27.922 7l3.248 3.214c-.074.085-.135.163-.205.232q-4.089 4.098-8.177 8.198c-.65.652-1.408 1.03-2.33.78a2.55 2.55 0 0 1-1.09-.608c-2.804-2.78-5.585-5.584-8.37-8.383-.062-.061-.111-.135-.176-.215l3.237-3.205c.196.185.41.38.614.586 1.987 1.996 3.97 3.995 5.958 5.989.344.345.351.335.704-.017 2.14-2.146 4.276-4.29 6.417-6.434.053-.054.118-.096.168-.135zM10.168 31.251c-1.049-1.098-2.088-2.184-3.154-3.303 2.28-2.253 4.603-4.553 6.917-6.842-.48-.502-.872-.929-1.283-1.339-1.793-1.791-3.592-3.58-5.388-5.369-.342-.34-.344-.345-.019-.675q1.276-1.294 2.56-2.582c.117-.117.248-.219.378-.332l2.114 2.109q3.073 3.067 6.144 6.135c.19.19.375.388.54.601.635.827.654 1.842.036 2.684-.177.243-.39.463-.602.679a8392 8392 0 0 1-8.1 8.132c-.021.023-.053.037-.143.099zm.583.537c2.8-2.784 5.55-5.523 8.308-8.252.275-.272.575-.55.915-.727.887-.463 1.832-.315 2.568.393 1.154 1.113 2.285 2.252 3.424 3.381 1.726 1.716 3.45 3.434 5.204 5.18-.148.17-.265.314-.394.446-.876.884-1.764 1.758-2.63 2.652-.199.204-.31.169-.485-.01q-3.23-3.267-6.463-6.53c-.061-.06-.13-.117-.205-.185-.92.905-1.838 1.793-2.742 2.695-1.35 1.348-2.686 2.707-4.036 4.054-.06.061-.25.096-.293.054-1.056-1.035-2.099-2.083-3.173-3.157z"/>
  </g>
  <defs>
    <clipPath id="a">
      <path fill="#fff" d="M7 7h28v28H7z"/>
    </clipPath>
  </defs>
</svg>
